svg/calendar_lock_open_outline.svg

<svg xmlns="http://www.w3.org/2000/svg" viewBox="0 0 24 24"><path d="M19 3h-1V1h-2v2H8V1H6v2H5c-1.1 0-2 .9-2 2v14c0 1.1.9 2 2 2h7v-2H5V9h14v1.1c.7.2 1.4.5 2 .9V5c0-1.1-.9-2-2-2m0 4H5V5h14zm3 14.8c0 .6-.6 1.2-1.3 1.2h-5.5c-.6 0-1.2-.6-1.2-1.3v-3.5c0-.6.6-1.2 1.2-1.2v-2.5c0-1.4 1.4-2.5 2.8-2.5s2.8 1.1 2.8 2.5v.5h-1.3v-.5c0-.8-.7-1.3-1.5-1.3s-1.5.5-1.5 1.3V17h4.3c.6 0 1.2.6 1.2 1.3z"/></svg>

<svg xmlns="http://www.w3.org/2000/svg" id="mdi-calendar-lock-open-outline" viewBox="0 0 24 24"><path d="M19 3H18V1H16V3H8V1H6V3H5C3.9 3 3 3.9 3 5V19C3 20.1 3.9 21 5 21H12V19H5V9H19V10.1C19.7 10.3 20.4 10.6 21 11V5C21 3.9 20.1 3 19 3M19 7H5V5H19V7M22 21.8C22 22.4 21.4 23 20.7 23H15.2C14.6 23 14 22.4 14 21.7V18.2C14 17.6 14.6 17 15.2 17V14.5C15.2 13.1 16.6 12 18 12S20.8 13.1 20.8 14.5V15H19.5V14.5C19.5 13.7 18.8 13.2 18 13.2S16.5 13.7 16.5 14.5V17H20.8C21.4 17 22 17.6 22 18.3V21.8Z" /></svg>
